X:1
T:Mozart, LM
T:Arranaged from Wolfgang A. Mozart (1756-1791)
T:Mozart, LM
T:Public Domain
C:Arranaged from Wolfgang A. Mozart (1756-1791)
Z:Public Domain
%%score ( 1 2 ) ( 3 4 )
L:1/8
M:3/4
K:G
V:1 treble 
V:2 treble 
V:3 bass 
V:4 bass 
V:1
 [DG]2 [DG]2 [DG]2 | [DF]4 D2 | [Dc]4 [Fc]2 | [GB]6 | [Gd]2 [Gd]2 [GB]2 | (d2 c2) [DA]2 | %6
 [DG]4 (B[FA]) | [DA]6 | G2 G2 G2 | F3 E D2 | [Dc]4 [Dc]2 | [DB]6 | [Dd]2 [Gd]2 [=FB]2 | %13
 (A2 c2) [Ee]2 | [DG]4 [CF]2 | [DG]6 |] %16
V:2
 x6 | x4 D2 | x6 | x6 | x6 | E4 x2 | x4 ^C2 | x6 | G2 G2 G2 | F3 E D2 | x6 | x6 | x6 | E4 x2 | x6 | %15
 x6 |] %16
V:3
 [G,,B,]2 [B,,B,]2 [G,,B,]2 | [D,A,]4 [D,F,]2 | [D,F,]2 [F,A,]2 [D,D]2 | [G,D]6 | %4
 [G,B,]2 [B,D]2 [G,D]2 | A,4 [F,C]2 | [G,B,]4 [E,G,]2 | [D,F,]6 | [G,B,]2 [B,D]2 [G,B,]2 | %9
 [A,C]3 [G,B,] ([F,A,][E,G,]) | [D,F,]2 [E,G,]2 [F,A,]2 | G,6 | [G,B,]2 [G,B,]2 [^G,D]2 | %13
 [A,C]4 [C,A,]2 | [D,A,]4 [D,A,]2 | [G,,B,]6 |] %16
V:4
 x6 | x6 | x6 | x6 | x6 | A,4 x2 | x6 | x6 | x6 | x6 | x6 | G,6 | x6 | x6 | x6 | x6 |] %16

